X: 296
T: Paddy on the Hand Car [2]
B: canberra pickers and fiddlers
B: tunes
M:C|
L:1/8
Q: 1/4=100
K:G
V:1 
((3[G,/D/]E/F/|[G,G])Bga g4|dg2a g4|dcd(e =fe)df|ed^ce d4|
([G,D]G2)A Bcd2|ed^ce d3(_B|=B)AGB AGFD|G6:|
|:[G,2D2]-|[G,2D2]GA G2(A-_B-|=B)GAc BGDC |B,CDE [=F4c4]|[Ac][=Fc][Gc][Fc] [Ac][Fc][Gc][Fc]|
(DE)GA G4|+slide+BAGB AG3|DEGA Bcd2|=fede d3 (_B|=B)AGB AGFD|G6:|]
% abcbook-tune_id 63da5934dbde4610eabe85d3
% abcbook-tune_composer_id 
% abcbook-link-0 https://www.youtube.com/watch?v=pbiBFyVo__A
% abcbook-boost 0
% abcbook-difficulty 0
% abcbook-tags canberra pickers and fiddlers,old time tunes,© free
% abcbook-tablature 
% abcbook-transpose 
% abcbook-tuning GDAD
% abcbook-lastupdated 1729479019036
% abcbook-src-url https://tunebook.net/scrape/tunes.abc
% abcbook-soundfonts 
% abcbook-repeats 1
%%gchordfont "itim-music,Itim" 20

